X:677
T:Bodachan ar-i-ar-o
S:Eilean Fraoich, 1982
Z:Nigel Gatherer
M:4/4
L:1/8
K:D
FA A2 BA A2 |  FF F2 FF E2 | FA A2 BA A2 | FFFD E2 D2 :|
FFAA  d2 dd | =c2 cc d2 d2 | FFAA  d2 dd | FFFD E2 D2 :|]
